img/avatar-placeholder.svg

<svg fill="none" height="120" viewBox="0 0 120 120" width="120" xmlns="http://www.w3.org/2000/svg"><path d="m0 0h120v120h-120z" fill="#fff"/><path d="m47.9917 75.5037-.7519-1.6059-.6392-3.0806-3.0615-6.5405v11.64c1.4077-.0637 2.9359-.2052 4.4526-.413z" fill="#008699"/><path d="m49.9331 69.2584 1.9564 2.4643 1.4862 3.1743c2.6887.369 4.9287 2.4077 5.4882 5.1257.3397 1.6512.03 3.3323-.8622 4.7567l2.1801 4.6572-4.6483 2.177-1.8233-3.8945c-2.6185.5353-6.3868 1.1491-10.1703 1.2517v31.0292h15.7593v-19.417h2.9538v19.417h15.7593v-57.4987c2.8487 5.9254 5.3863 17.8623 4.0761 40.2537-.1644 2.811 1.9806 5.223 4.7917 5.388.1013.005.202.009.3027.009 2.6798 0 4.9262-2.091 5.0849-4.801 1.5753-26.9238-1.7927-44.4892-10.0092-52.2093-3.5719-3.3559-7.0617-3.9364-8.8575-3.9798-.1046-.0064-.2078-.0159-.3142-.0159h-6.7259l-5.5845 4.5725-5.5845-4.5725h-6.7258c-.1052 0-.2078.0089-.3117.0159-1.5282.0402-4.3042.4793-7.3058 2.6893z" fill="#008699"/><path d="m60.7744 43.5148c7.9191 0 14.3388-6.4197 14.3388-14.3389 0-7.9191-6.4197-14.3388-14.3388-14.3388s-14.3389 6.4197-14.3389 14.3388c0 7.9192 6.4198 14.3389 14.3389 14.3389z" fill="#008699"/><path d="m36.6545 46.1434 11.1469 23.8207.6381 3.0814.8575 1.8323c.5952-.0987 1.1841-.2031 1.7487-.3196.2078-.0427.4181-.0739.6284-.0962l-1.1251-2.404-1.9567-2.464-11.1468-23.8207c5.5492-2.9135 7.3654-10.8435 4.0284-17.9746-3.414-7.2967-10.9283-10.9903-16.7828-8.2509s-7.8326 10.8753-4.4185 18.1721c3.337 7.131 10.5887 10.8175 16.3819 8.4235zm-11.4697-25.5408c5.2637-2.4629 12.098.9865 15.2343 7.6899 3.137 6.7034 1.4063 14.1606-3.8574 16.6235s-12.098-.9865-15.2343-7.6899c-3.137-6.7027-1.4062-14.1606 3.8574-16.6235z" fill="#008699" stroke="#008699"/><path d="m55.0645 87.3049 1.1439 2.444 2.1094-.9872-1.295-2.7664c-.5678.5525-1.228.9973-1.9583 1.3096z" fill="#008699"/><path d="m53.5241 86.326c2.7575-.5671 4.5337-3.2635 3.9665-6.021-.5678-2.7569-3.2597-4.5336-6.0211-3.9664-3.2138.6615-6.8635 1.0222-9.5229 1.0196-.8125-.0006-1.5345-.0344-2.1208-.1058.7424-6.3766 1.9736-10.8178 3.3011-13.8583l-5.111-10.9185c-4.5425 5.1804-7.416 13.8175-8.5485 25.7602 0 .0025-.0006.0051-.0013.0082-.0019.0223-.0006.044-.0025.0663-.0134.16-.0204.3199-.0185.4773-.0682 2.2968.8093 4.3884 2.5287 5.9306 2.2821 2.0463 5.9401 2.7849 9.7931 2.8633.2371.0051.4748.0076.7131.0076 3.9811 0 8.091-.6557 11.0441-1.2631z" fill="#008699"/><g stroke="#008699"><path d="m19.1426 29.9475 17.081-7.7661"/><path d="m30.9004 19.7458 10.0599 22.1259"/><path d="m20.1143 35.1886 19.2119-8.735"/><path d="m25.502 20.373 11.3148 24.8861"/><path d="m22.8828 39.6133 19.0404-8.657"/><path d="m21.1611 23.3262 10.3749 22.8304"/><path d="m26.2959 43.7445 16.3512-7.4343"/></g></svg>

<svg width="120" height="120" viewBox="0 0 120 120" fill="none" xmlns="http://www.w3.org/2000/svg">
<rect width="120" height="120" fill="white"/>
<path d="M47.9917 75.5037L47.2398 73.8978L46.6006 70.8172L43.5391 64.2767V75.9167C44.9468 75.853 46.475 75.7115 47.9917 75.5037Z" fill="#008699"/>
<path d="M49.9331 69.2584L51.8895 71.7227L53.3757 74.897C56.0644 75.266 58.3044 77.3047 58.8639 80.0227C59.2036 81.6739 58.8939 83.355 58.0017 84.7794L60.1818 89.4366L55.5335 91.6136L53.7102 87.7191C51.0917 88.2544 47.3234 88.8682 43.5399 88.9708V120H59.2992V100.583H62.253V120H78.0123V62.5013C80.861 68.4267 83.3986 80.3636 82.0884 102.755C81.924 105.566 84.069 107.978 86.8801 108.143C86.9814 108.148 87.0821 108.152 87.1828 108.152C89.8626 108.152 92.109 106.061 92.2677 103.351C93.843 76.4272 90.475 58.8618 82.2585 51.1417C78.6866 47.7858 75.1968 47.2053 73.401 47.1619C73.2964 47.1555 73.1932 47.146 73.0868 47.146H66.3609L60.7764 51.7185L55.1919 47.146H48.4661C48.3609 47.146 48.2583 47.1549 48.1544 47.1619C46.6262 47.2021 43.8502 47.6412 40.8486 49.8512L49.9331 69.2584Z" fill="#008699"/>
<path d="M60.7744 43.5148C68.6935 43.5148 75.1132 37.0951 75.1132 29.1759C75.1132 21.2568 68.6935 14.8371 60.7744 14.8371C52.8553 14.8371 46.4355 21.2568 46.4355 29.1759C46.4355 37.0951 52.8553 43.5148 60.7744 43.5148Z" fill="#008699"/>
<path d="M36.6545 46.1434L47.8014 69.9641L48.4395 73.0455L49.297 74.8778C49.8922 74.7791 50.4811 74.6747 51.0457 74.5582C51.2535 74.5155 51.4638 74.4843 51.6741 74.462L50.549 72.058L48.5923 69.594L37.4455 45.7733C42.9947 42.8598 44.8109 34.9298 41.4739 27.7987C38.0599 20.502 30.5456 16.8084 24.6911 19.5478C18.8366 22.2872 16.8585 30.4231 20.2726 37.7199C23.6096 44.8509 30.8613 48.5374 36.6545 46.1434ZM25.1848 20.6026C30.4485 18.1397 37.2828 21.5891 40.4191 28.2925C43.5561 34.9959 41.8254 42.4531 36.5617 44.916C31.298 47.3789 24.4637 43.9295 21.3274 37.2261C18.1904 30.5234 19.9212 23.0655 25.1848 20.6026Z" fill="#008699" stroke="#008699"/>
<path d="M55.0645 87.3049L56.2084 89.7489L58.3178 88.7617L57.0228 85.9953C56.455 86.5478 55.7948 86.9926 55.0645 87.3049Z" fill="#008699"/>
<path d="M53.5241 86.326C56.2816 85.7589 58.0578 83.0625 57.4906 80.305C56.9228 77.5481 54.2309 75.7714 51.4695 76.3386C48.2557 77.0001 44.606 77.3608 41.9466 77.3582C41.1341 77.3576 40.4121 77.3238 39.8258 77.2524C40.5682 70.8758 41.7994 66.4346 43.1269 63.3941L38.0159 52.4756C33.4734 57.656 30.5999 66.2931 29.4674 78.2358C29.4674 78.2383 29.4668 78.2409 29.4661 78.244C29.4642 78.2663 29.4655 78.288 29.4636 78.3103C29.4502 78.4703 29.4432 78.6302 29.4451 78.7876C29.3769 81.0844 30.2544 83.176 31.9738 84.7182C34.2559 86.7645 37.9139 87.5031 41.7669 87.5815C42.004 87.5866 42.2417 87.5891 42.48 87.5891C46.4611 87.5891 50.571 86.9334 53.5241 86.326Z" fill="#008699"/>
<path d="M19.1426 29.9475L36.2236 22.1814" stroke="#008699"/>
<path d="M30.9004 19.7458L40.9603 41.8717" stroke="#008699"/>
<path d="M20.1143 35.1886L39.3262 26.4536" stroke="#008699"/>
<path d="M25.502 20.373L36.8168 45.2591" stroke="#008699"/>
<path d="M22.8828 39.6133L41.9232 30.9563" stroke="#008699"/>
<path d="M21.1611 23.3262L31.536 46.1566" stroke="#008699"/>
<path d="M26.2959 43.7445L42.6471 36.3102" stroke="#008699"/>
</svg>
